public/Vector (3).svg

<svg width="13" height="13" viewBox="0 0 13 13" fill="none" xmlns="http://www.w3.org/2000/svg">
<path d="M6.61 0.282459L8.23 3.52246C8.32 3.61246 8.41 3.70246 8.59 3.79246L12.1 4.33246C12.46 4.42246 12.64 4.87246 12.37 5.14246L9.85 7.66246C9.76 7.75246 9.67 7.93246 9.76 8.02246L10.39 11.5325C10.48 11.8925 10.03 12.1625 9.76 11.9825L6.61 10.3625C6.52 10.2725 6.34 10.2725 6.16 10.3625L3.01 11.9825C2.65 12.1625 2.29 11.8925 2.38 11.5325L3.01 8.02246C3.01 7.84246 3.01 7.75246 2.92 7.66246L0.13 4.96246C-0.14 4.69246 0.04 4.24246 0.4 4.24246L3.91 3.70246C4.09 3.70246 4.18 3.61246 4.27 3.43246L5.89 0.19246C5.98 -0.0775405 6.52 -0.0775406 6.61 0.282459Z" fill="url(#paint0_linear_11917_54051)"/>
<defs>
<linearGradient id="paint0_linear_11917_54051" x1="0.0067" y1="5.95246" x2="12.4933" y2="5.95246" gradientUnits="userSpaceOnUse">
<stop stop-color="#FFC80B"/>
<stop offset="1" stop-color="#E89318"/>
</linearGradient>
</defs>
</svg>

<svg xmlns="http://www.w3.org/2000/svg" width="13" height="13" fill="none" viewBox="0 0 13 13"><path fill="url(#a)" d="m6.61.282 1.62 3.24c.09.09.18.18.36.27l3.51.54c.36.09.54.54.27.81l-2.52 2.52c-.09.09-.18.27-.09.36l.63 3.51c.09.36-.36.63-.63.45l-3.15-1.62c-.09-.09-.27-.09-.45 0l-3.15 1.62c-.36.18-.72-.09-.63-.45l.63-3.51c0-.18 0-.27-.09-.36l-2.79-2.7c-.27-.27-.09-.72.27-.72l3.51-.54c.18 0 .27-.09.36-.27L5.89.192c.09-.27.63-.27.72.09"/><defs><linearGradient id="a" x1=".007" x2="12.493" y1="5.952" y2="5.952" gradientUnits="userSpaceOnUse"><stop stop-color="#ffc80b"/><stop offset="1" stop-color="#e89318"/></linearGradient></defs></svg>
